X: 34958
T: Rocky Road To Glinsk
R: jig
M: 6/8
K: Dmajor
|:DEF ABA|FED DED|DEF ABA|FED ~E3|
DEF ABA|DFA B2B|dcB AFD|1 EFE ~D3:|2 EFE DFA||
|:d=cB cBA|BdB ~A3|DEF ABA|DFA B2B|
d=cB cBA|BdB ~A3|DEF ABA|FED ~D3:|

